Origami/16x16/apps/recipes.svg

<svg width="16" height="16" version="1.1" viewBox="0 0 16 16" xmlns="http://www.w3.org/2000/svg">
 <circle cx="7.5" cy="7.5" r="7.5" style="fill:#caa17d"/>
 <path d="m 6,9 0,3.333334 C 6,12.702667 6.2973335,13 6.6666665,13 l 0.666667,0 C 7.7026665,13 8,12.702667 8,12.333334 L 8,9 6,9 Z" style="fill:#855629"/>
 <path d="m6 1s4 2.2121592 4 8h-4z" style="fill:#cccccc"/>
 <path d="m12.5 9c0.127836 0 0.248919 0.0135642 0.373047 0.0214844a3.5 3.5 0 0 0 -0.373047 -0.0214844za3.5 3.5 0 0 0 -0.337891 0.0195312c0.112576-0.0068639 0.222102-0.0195312 0.337891-0.0195312zm-0.378906 0.0234375a3.5 3.5 0 0 0 -0.304688 0.046875 3.5 3.5 0 0 1 0.304688 -0.046875zm0.90039 0.0195313a3.5 3.5 0 0 1 0.242188 0.0449218 3.5 3.5 0 0 0 -0.242188 -0.0449218zm-1.246093 0.0371093a3.5 3.5 0 0 0 -0.285157 0.0722657 3.5 3.5 0 0 1 0.285157 -0.0722657zm1.566406 0.0273438a3.5 3.5 0 0 1 0.273437 0.078125 3.5 3.5 0 0 0 -0.273437 -0.078125zm-1.941406 0.0742187a3.5 3.5 0 0 0 -0.242188 0.0898438 3.5 3.5 0 0 1 0.242188 -0.0898438zm2.242187 0.0136719a3.5 3.5 0 0 1 0.304688 0.1210937 3.5 3.5 0 0 0 -0.304688 -0.1210937zm0.304688 0.1210937a3.5 3.5 0 0 1 0.30664 0.1582032 3.5 3.5 0 0 0 -0.30664 -0.1582032zm-2.851563-0.0175781a3.5 3.5 0 0 0 -0.263672 0.1289063 3.5 3.5 0 0 1 0.263672 -0.1289063zm-0.292969 0.1445313a3.5 3.5 0 0 0 -0.273437 0.1679687 3.5 3.5 0 0 1 0.273437 -0.1679687zm3.464844 0.0390625a3.5 3.5 0 0 1 0.283203 0.1855469 3.5 3.5 0 0 0 -0.283203 -0.1855469zm0.283203 0.1855469a3.5 3.5 0 0 1 0.265625 0.2128906 3.5 3.5 0 0 0 -0.265625 -0.2128906zm-4.041015-0.0429688a3.5 3.5 0 0 0 -0.259766 0.1992188 3.5 3.5 0 0 1 0.259766 -0.1992188zm-0.271485 0.2089844a3.5 3.5 0 0 0 -0.2480466 0.2324216 3.5 3.5 0 0 1 0.2480466 -0.2324216zm-0.2480466 0.2324216a3.5 3.5 0 0 0 -0.2304688 0.261719 3.5 3.5 0 0 1 0.2304688 -0.261719zm4.8535156-0.160156a3.5 3.5 0 0 1 0.226562 0.222656 3.5 3.5 0 0 0 -0.226562 -0.222656zm0.240234 0.236328a3.5 3.5 0 0 1 0.212891 0.259766 3.5 3.5 0 0 0 -0.212891 -0.259766zm0.212891 0.259766a3.5 3.5 0 0 1 0.195313 0.289062 3.5 3.5 0 0 0 -0.195313 -0.289062zm0.195313 0.289062a3.5 3.5 0 0 1 0.166015 0.308594 3.5 3.5 0 0 0 -0.166015 -0.308594zm0.166015 0.308594h-6.3164061a3.5 3.5 0 0 0 -0.3417969 1.5 3.5 3.5 0 0 0 3.5 3.5 3.5 3.5 0 0 0 3.5 -3.5 3.5 3.5 0 0 0 -0.341797 -1.5zm-5.9003905-0.669922a3.5 3.5 0 0 0 -0.2011719 0.283203 3.5 3.5 0 0 1 0.2011719 -0.283203zm-0.2011719 0.283203a3.5 3.5 0 0 0 -0.1738281 0.304688 3.5 3.5 0 0 1 0.1738281 -0.304688z" style="fill:#e74c3c"/>
 <path d="m12 8v1h0.5 0.5v-1h-1zm0.5 1c-0.119792 0-0.232914 0.0128169-0.349609 0.0195312a3.5 3.5 0 0 0 -2.8085941 1.9804688h1.6582031l0.75 1 0.75 1 0.75-1 0.75-1h1.658203a3.5 3.5 0 0 0 -2.779297 -1.9785156c-0.12617-0.0078718-0.249069-0.0214844-0.378906-0.0214844z" style="fill:#a6ef4d"/>
</svg>

<svg xmlns="http://www.w3.org/2000/svg" width="16" height="16" version="1.1" viewBox="0 0 16 16">
 <circle style="fill:#caa17d" cx="7.5" cy="7.5" r="7.5"/>
 <path style="fill:#855629" d="m 6,9 0,3.333334 C 6,12.702667 6.2973335,13 6.6666665,13 l 0.666667,0 C 7.7026665,13 8,12.702667 8,12.333334 L 8,9 6,9 Z"/>
 <path style="fill:#cccccc" d="m 6,1 c 0,0 4,2.2121592 4,8 L 6,9 Z"/>
 <path style="fill:#e74c3c" d="M 12.5 9 C 12.627836 9 12.748919 9.0135642 12.873047 9.0214844 A 3.5 3.5 0 0 0 12.5 9 z M 12.5 9 A 3.5 3.5 0 0 0 12.162109 9.0195312 C 12.274685 9.0126673 12.384211 9 12.5 9 z M 12.121094 9.0234375 A 3.5 3.5 0 0 0 11.816406 9.0703125 A 3.5 3.5 0 0 1 12.121094 9.0234375 z M 13.021484 9.0429688 A 3.5 3.5 0 0 1 13.263672 9.0878906 A 3.5 3.5 0 0 0 13.021484 9.0429688 z M 11.775391 9.0800781 A 3.5 3.5 0 0 0 11.490234 9.1523438 A 3.5 3.5 0 0 1 11.775391 9.0800781 z M 13.341797 9.1074219 A 3.5 3.5 0 0 1 13.615234 9.1855469 A 3.5 3.5 0 0 0 13.341797 9.1074219 z M 11.400391 9.1816406 A 3.5 3.5 0 0 0 11.158203 9.2714844 A 3.5 3.5 0 0 1 11.400391 9.1816406 z M 13.642578 9.1953125 A 3.5 3.5 0 0 1 13.947266 9.3164062 A 3.5 3.5 0 0 0 13.642578 9.1953125 z M 13.947266 9.3164062 A 3.5 3.5 0 0 1 14.253906 9.4746094 A 3.5 3.5 0 0 0 13.947266 9.3164062 z M 11.095703 9.2988281 A 3.5 3.5 0 0 0 10.832031 9.4277344 A 3.5 3.5 0 0 1 11.095703 9.2988281 z M 10.802734 9.4433594 A 3.5 3.5 0 0 0 10.529297 9.6113281 A 3.5 3.5 0 0 1 10.802734 9.4433594 z M 14.267578 9.4824219 A 3.5 3.5 0 0 1 14.550781 9.6679688 A 3.5 3.5 0 0 0 14.267578 9.4824219 z M 14.550781 9.6679688 A 3.5 3.5 0 0 1 14.816406 9.8808594 A 3.5 3.5 0 0 0 14.550781 9.6679688 z M 10.509766 9.625 A 3.5 3.5 0 0 0 10.25 9.8242188 A 3.5 3.5 0 0 1 10.509766 9.625 z M 10.238281 9.8339844 A 3.5 3.5 0 0 0 9.9902344 10.066406 A 3.5 3.5 0 0 1 10.238281 9.8339844 z M 9.9902344 10.066406 A 3.5 3.5 0 0 0 9.7597656 10.328125 A 3.5 3.5 0 0 1 9.9902344 10.066406 z M 14.84375 9.90625 A 3.5 3.5 0 0 1 15.070312 10.128906 A 3.5 3.5 0 0 0 14.84375 9.90625 z M 15.083984 10.142578 A 3.5 3.5 0 0 1 15.296875 10.402344 A 3.5 3.5 0 0 0 15.083984 10.142578 z M 15.296875 10.402344 A 3.5 3.5 0 0 1 15.492188 10.691406 A 3.5 3.5 0 0 0 15.296875 10.402344 z M 15.492188 10.691406 A 3.5 3.5 0 0 1 15.658203 11 A 3.5 3.5 0 0 0 15.492188 10.691406 z M 15.658203 11 L 9.3417969 11 A 3.5 3.5 0 0 0 9 12.5 A 3.5 3.5 0 0 0 12.5 16 A 3.5 3.5 0 0 0 16 12.5 A 3.5 3.5 0 0 0 15.658203 11 z M 9.7578125 10.330078 A 3.5 3.5 0 0 0 9.5566406 10.613281 A 3.5 3.5 0 0 1 9.7578125 10.330078 z M 9.5566406 10.613281 A 3.5 3.5 0 0 0 9.3828125 10.917969 A 3.5 3.5 0 0 1 9.5566406 10.613281 z"/>
 <path style="fill:#a6ef4d" d="M 12 8 L 12 9 L 12.5 9 L 13 9 L 13 8 L 12 8 z M 12.5 9 C 12.380208 9 12.267086 9.0128169 12.150391 9.0195312 A 3.5 3.5 0 0 0 9.3417969 11 L 11 11 L 11.75 12 L 12.5 13 L 13.25 12 L 14 11 L 15.658203 11 A 3.5 3.5 0 0 0 12.878906 9.0214844 C 12.752736 9.0136126 12.629837 9 12.5 9 z"/>
</svg>
